src/icons/svg/chevron-down.svg

<svg width="20" height="20" fill="none" xmlns="http://www.w3.org/2000/svg"><path d="M5.25 7.563a.508.508 0 0 0-.299.312.553.553 0 0 0 .013.475c.089.189 4.638 4.728 4.81 4.799a.548.548 0 0 0 .452 0c.172-.071 4.721-4.61 4.81-4.799a.56.56 0 0 0 .001-.5.508.508 0 0 0-.312-.299.546.546 0 0 0-.451 0c-.086.036-.754.681-2.199 2.125L10 11.75 7.925 9.676C6.48 8.232 5.812 7.587 5.726 7.551a.56.56 0 0 0-.476.012" fill="#19191C" fill-rule="evenodd"/></svg>

<svg width="20" height="20" viewBox="0 0 20 20" fill="none" xmlns="http://www.w3.org/2000/svg"><path d="M5.250 7.563 C 5.091 7.636,5.020 7.710,4.951 7.875 C 4.884 8.037,4.888 8.187,4.964 8.350 C 5.053 8.539,9.602 13.078,9.774 13.149 C 9.931 13.214,10.069 13.214,10.226 13.149 C 10.398 13.078,14.947 8.539,15.036 8.350 C 15.115 8.182,15.115 8.020,15.037 7.850 C 14.964 7.691,14.890 7.620,14.725 7.551 C 14.569 7.486,14.431 7.486,14.274 7.551 C 14.188 7.587,13.520 8.232,12.075 9.676 L 10.000 11.750 7.925 9.676 C 6.480 8.232,5.812 7.587,5.726 7.551 C 5.563 7.484,5.414 7.488,5.250 7.563 " fill="#19191C" stroke="none" fill-rule="evenodd"></path></svg>
